img/icon-rocket.svg

<svg width="55" height="23" viewBox="0 0 55 23" fill="none" xmlns="http://www.w3.org/2000/svg">
<path d="M40.9467 5.75002C37.307 4.75864 33.0607 4.06466 28.41 4.06466C25.478 4.06466 22.8493 4.26294 20.625 4.65949L13.75 0H0.10114L5.9651 6.14656H14.4577C9.80697 7.73277 7.58272 9.61639 7.58272 9.61639V13.3836C7.58272 13.3836 9.90811 15.2672 14.5588 16.8534H5.86396L0 23H13.6489L20.5239 18.3405C22.8492 18.7371 25.3768 18.9354 28.3088 18.9354C32.8584 18.9354 37.1048 18.2414 40.8456 17.25C39.6324 15.4655 38.9246 13.5819 38.9246 11.4009C39.0257 9.4181 39.8345 7.5345 40.9467 5.75002Z" fill="#63D1BB"/>
<path d="M44.4853 7.74121C43.1709 9.32742 42.4632 10.9136 42.4632 12.4998C42.4632 14.086 43.1709 15.6722 44.4853 17.2585C50.9559 15.0774 55 12.4998 55 12.4998C55 12.4998 50.9559 9.92224 44.4853 7.74121Z" fill="#63D1BB"/>
</svg>

<svg width="55" height="23" fill="none" xmlns="http://www.w3.org/2000/svg"><path d="M40.947 5.75A47.823 47.823 0 0028.41 4.065c-2.932 0-5.56.198-7.785.594L13.75 0H.101l5.864 6.147h8.493c-4.651 1.586-6.875 3.47-6.875 3.47v3.767s2.325 1.883 6.976 3.47H5.864L0 23h13.649l6.875-4.66c2.325.397 4.853.595 7.785.595 4.55 0 8.796-.694 12.537-1.685-1.214-1.784-1.921-3.668-1.921-5.85.1-1.982.91-3.865 2.022-5.65zm3.538 1.991c-1.314 1.586-2.022 3.173-2.022 4.759 0 1.586.708 3.172 2.022 4.759C50.955 15.077 55 12.499 55 12.499s-4.044-2.577-10.515-4.758z" fill="#63D1BB"/></svg>
